src/svgs/Note.svg

<?xml version="1.0" encoding="UTF-8"?>
<svg width="24px" height="24px" viewBox="0 0 24 24" version="1.1" xmlns="http://www.w3.org/2000/svg" xmlns:xlink="http://www.w3.org/1999/xlink">
    <!-- Generator: Sketch 57.1 (83088) - https://sketch.com -->
    <title>main_library_icon_nav_reading_notes</title>
    <desc>Created with Sketch.</desc>
    <g id="Symbols" stroke="none" stroke-width="1" fill="none" fill-rule="evenodd">
        <g id="icon-/-setting-/-ReadingNotes" fill="#9EA7AD">
            <path d="M19,2 C19.5522847,2 20,2.44771525 20,3 L20,15.714 L14.971,22 L5,22 C4.44771525,22 4,21.5522847 4,21 L4,3 C4,2.44771525 4.44771525,2 5,2 L19,2 Z M18,4 L6,4 L6,20 L13,20 L13,15 C13,14.4477153 13.4477153,14 14,14 L18,14 L18,4 Z M17.209,16 L15,16 L15,18.761 L17.209,16 Z M14,10 L14,12 L8,12 L8,10 L14,10 Z M16,6 L16,8 L8,8 L8,6 L16,6 Z" id="Combined-Shape"></path>
        </g>
    </g>
</svg>

<svg xmlns="http://www.w3.org/2000/svg" width="24" height="24" viewBox="0 0 24 24">
    <path fill="#9EA7AD" fill-rule="evenodd" d="M19 2a1 1 0 0 1 1 1v12.714L14.971 22H5a1 1 0 0 1-1-1V3a1 1 0 0 1 1-1h14zm-1 2H6v16h7v-5a1 1 0 0 1 1-1h4V4zm-.791 12H15v2.761L17.209 16zM14 10v2H8v-2h6zm2-4v2H8V6h8z"/>
</svg>
